X:1
T:Pachelbel's Frolics x2
L:1/8
Q:1/4=180
M:4/4
K:D
"D"  |"A"  |"Bm"  |"F#m"  |
"G"  |"D"  |"G"  |1"A7"  :|2
"A"  |:"D" dfAf dfAd |"A" ceAe ceAc |"Bm"BdFd BdFd |
"F#m" F2 FG AFDF |"G" EDEF GFGA |"D" AFAc d2 cd |"G" d2 cB ABcd |1
"A7" ecAc"A" e4 :|2"A" ecAc"D" F2 Fc ||"A"ec.A.c z4 |"D" !fermata!F8 |
